X:7009
T:Grandfather's Clock
R:March
C:Henry C. Work 1876
O:USA
P:A((AB)2C2)2C
M:4/4
L:1/8
Q:1/4=120
K:G
P:A
|:DD|"G"G2 FG "D"A2 GA|"G"B2 cB "Am"E2 AA|"G"G2 GG "D"FE F2|"G"G4 "G"G2:|
P:B
Bc|"G"d2 BA "Em"G2 FG|"C"AG "D"FE "G"D2 Bc|"G"d2 BA "A7"G2 FG|"D"A4 "D"A2 DD|
"G"G2 z2 "D"A2 z2|"G"(3BBB cB "Am"E2 AA|"G"G2 GG "D"FE F2|"G"G4 "G"G2||
P:C
DD|"G"G2 DD "Em"E2 DD|"G"B,2 DD "Em"E2 DD|"G"G2 DD "Em"E2 DD|"G"B,2 DD "Em"E2 DD|
"G"G2 z2 "D"A2 z2|"G"(3BBB cB "Am"E2 AA|"G"G2 GG "D"FE F2|"G"G4 G2|]

